svg/electricity.svg

<svg xmlns="http://www.w3.org/2000/svg" viewBox="0 0 32 32" enable-background="new 0 0 32 32"><path d="M 18.875 4 L 11.96875 11.3125 L 11.125 12.21875 L 12.1875 12.84375 L 19.375 17.1875 L 12 24.5625 L 12 20 L 10 20 L 10 27 L 10 28 L 11 28 L 18 28 L 18 26 L 13.4375 26 L 21.71875 17.71875 L 22.625 16.8125 L 21.53125 16.15625 L 14.28125 11.78125 L 20.3125 5.375 L 18.875 4 z" color="#000" overflow="visible" enable-background="accumulate"/></svg>

<svg xmlns="http://www.w3.org/2000/svg" viewBox="0 0 32 32"><path d="M18.875 4l-6.906 7.313-.845.906 1.063.624 7.187 4.344L12 24.563V20h-2v8h8v-2h-4.563l8.282-8.28.905-.907-1.094-.657-7.25-4.375 6.033-6.405L18.875 4z"/></svg>
